X:1
T:Islington, 66.66.87.87
T:Islington, 66.66.87.87
T:George Mursell Garrett (1834-1897)
T:Public Domain Courtesy of the Cyber Hymnal™
C:George Mursell Garrett (1834-1897)
Z:Public Domain
Z:Courtesy of the Cyber Hymnal™
%%score ( 1 2 ) ( 3 4 )
L:1/8
Q:1/4=113
M:4/4
K:C
V:1 treble 
V:2 treble 
V:3 bass 
V:4 bass 
V:1
 [Gc]2 [Gc]2 [GB]2 [GB]2 | [EA]4 [EA]4 | [FA]2 [GB]2 [Gc]2 [Gd]2 | [Ge]4 [Gd]4 | %4
 [Ec]2 [Ec]2 [GB]2 [GB]2 | [FA]4 [FA]4 | G2 [GA]2 [GB]2 [Gc]2 | [^FA]4 [DG]4 || %8
[M:3/4] [EG]2 [EG]3 [EG] | [^FA]6 | [EG]2 [EG]3 [EG] | [Dd]6 | [Dd]2 [DB]2 [DG]2 | [CE]4 [EG]2 | %14
 [D^F]6 | [DG]6 | [EG]2 [EG]2 [EG]2 | [^DA]6 | [EG]2 [EG]2 [EG]2 | [Fc]6 | [^Fc]2 [Fc]2 [Fd]2 | %21
 [Ge]4 [Ec]2 | [Fd]6 | [Ec]6 |] %24
V:2
 x8 | x8 | x8 | x8 | x8 | x8 | G2 x6 | x8 ||[M:3/4] x6 | x6 | x6 | x6 | x6 | x6 | x6 | x6 | x6 | %17
 x6 | x6 | x6 | x6 | x6 | x6 | x6 |] %24
V:3
 [CE]2 [CE]2 [G,D]2 [G,D]2 | [A,C]4 [A,C]4 | [F,C]2 [F,D]2 [E,C]2 [D,B,]2 | C4 [G,B,]4 | %4
 [A,C]2 [A,C]2 [E,E]2 [E,E]2 | [F,C]4 [F,C]4 | [C,E]2 [C,E]2 [B,,D]2 [A,,C]2 | [D,C]4 [G,B,]4 || %8
[M:3/4] [E,B,]2 [E,B,]3 [E,B,] | [^D,B,]6 | [E,B,]2 [E,B,]3 [E,B,] | [^F,A,]6 | %12
 [G,B,]2 G,2 [B,,G,]2 | [C,G,]4 [D,A,]2 | (A,2 B,2 C2) | [G,B,]6 | [C,C]2 [C,G,]2 [C,G,]2 | %17
 [C,^F,]6 | [C,G,]2 [C,C]2 [B,_C]2 | [A,C]6 | [_A,C]2 [A,C]2 [A,C]2 | [G,C]4 [G,C]2 | [G,,B,]6 | %23
 [C,G,]6 |] %24
V:4
 x8 | x8 | x8 | (C,2 E,2) x4 | x8 | x8 | x8 | x8 ||[M:3/4] x6 | x6 | x6 | x6 | x2 G,2 x2 | x6 | %14
 D,6 | x6 | x6 | x6 | x6 | x6 | x6 | x6 | x6 | x6 |] %24

